<?xml version="1.0" encoding="UTF-8"?>
<map version="1.10" tiledversion="1.11.2" orientation="orthogonal" renderorder="right-down" width="11" height="8" tilewidth="16" tileheight="16" infinite="0" nextlayerid="11" nextobjectid="1">
 <tileset firstgid="1" source="medieval tileset interior.tsx"/>
 <tileset firstgid="401" source="Tile-set - Toen's Medieval Strategy (16x16) - v.1.0.tsx"/>
 <layer id="1" name="base" width="11" height="8">
  <data encoding="csv">
1,1,1,1,1,1,1,1,1,1,1,
1,1,1,1,1,1,1,1,1,1,1,
1,1,1,1,1,1,1,1,1,1,1,
1,1,1,1,1,1,1,1,1,1,1,
1,1,1,1,1,1,1,1,1,1,1,
1,1,1,1,1,1,1,1,1,1,1,
1,1,1,1,1,1,1,1,1,1,1,
1,1,1,1,1,1,1,1,1,1,1
</data>
 </layer>
 <layer id="2" name="wall n floor" width="11" height="8">
  <data encoding="csv">
0,162,168,164,162,162,162,168,169,170,0,
0,182,188,184,182,182,182,188,189,190,0,
0,202,208,204,202,202,202,208,209,210,0,
0,242,242,242,242,222,222,222,222,222,0,
0,242,242,242,242,242,242,242,242,242,0,
0,242,242,242,242,242,242,242,242,242,0,
0,242,242,242,242,242,242,242,242,242,0,
0,0,0,0,262,242,0,0,0,0,0
</data>
 </layer>
 <group id="3" name="bed">
  <layer id="4" name="Tile Layer 3" width="11" height="8">
   <data encoding="csv">
0,0,0,0,0,0,0,0,0,0,0,
0,0,0,0,0,0,0,0,0,0,0,
0,0,0,0,0,0,0,0,0,0,0,
0,0,0,0,0,0,0,0,0,354,0,
0,0,0,0,0,0,0,0,0,230,0,
0,0,0,0,0,0,0,0,0,0,0,
0,0,0,0,0,0,0,0,0,0,0,
0,0,0,0,0,0,0,0,0,0,0
</data>
  </layer>
  <layer id="5" name="Tile Layer 4" width="11" height="8">
   <data encoding="csv">
0,0,0,0,0,0,0,0,0,0,0,
0,0,0,0,0,0,0,0,0,0,0,
0,0,0,0,0,0,0,0,0,0,0,
0,0,0,0,0,0,0,0,0,230,0,
0,0,0,0,0,0,0,0,0,250,0,
0,0,0,0,0,0,0,0,0,0,0,
0,0,0,0,0,0,0,0,0,0,0,
0,0,0,0,0,0,0,0,0,0,0
</data>
  </layer>
 </group>
 <group id="7" name="other furniture">
  <layer id="6" name="layer 1" width="11" height="8">
   <data encoding="csv">
0,0,0,0,0,0,0,0,0,0,0,
0,0,0,173,114,174,0,0,0,0,0,
0,0,0,193,114,194,0,0,0,0,0,
0,0,0,213,0,214,0,0,0,0,0,
0,0,0,0,0,0,0,0,0,0,0,
0,0,0,0,0,0,0,0,0,0,0,
0,0,0,0,0,0,0,0,0,0,0,
0,0,0,0,0,0,0,0,0,0,0
</data>
  </layer>
  <layer id="8" name="Tile Layer 6" width="11" height="8">
   <data encoding="csv">
0,0,0,0,0,0,0,0,0,0,0,
0,0,0,198,175,198,0,0,0,0,0,
0,0,0,175,217,217,0,0,0,0,0,
0,0,0,0,0,0,0,0,0,0,0,
0,0,0,0,0,0,0,0,0,0,0,
0,0,0,0,0,0,0,0,0,0,0,
0,0,0,0,0,0,0,0,0,0,0,
0,0,0,0,0,0,0,0,0,0,0
</data>
  </layer>
  <layer id="9" name="chest" width="11" height="8">
   <data encoding="csv">
0,0,0,0,0,0,0,0,0,0,0,
0,0,0,0,0,0,0,0,0,0,0,
0,356,0,0,0,0,0,0,0,0,0,
0,376,0,0,0,0,0,0,0,0,0,
0,0,0,0,0,0,0,0,0,0,0,
0,0,0,0,0,0,0,0,0,0,0,
0,257,257,0,0,0,0,0,0,0,0,
0,0,0,0,0,0,0,0,0,0,0
</data>
  </layer>
 </group>
 <layer id="10" name="Collision" width="11" height="8">
  <data encoding="csv">
608,608,608,608,608,608,608,608,608,608,608,
608,608,608,608,608,608,608,608,608,608,608,
608,608,608,0,0,0,608,608,608,608,608,
608,0,0,0,0,0,0,0,0,0,608,
608,0,0,0,0,0,0,0,0,0,608,
608,0,0,0,0,0,0,0,0,0,608,
608,0,0,0,0,0,0,0,0,0,608,
608,608,608,608,0,0,608,608,608,608,608
</data>
 </layer>
</map>
