<?xml version="1.0" encoding="UTF-8"?>
<map version="1.10" tiledversion="1.11.2" orientation="orthogonal" renderorder="right-down" width="21" height="11" tilewidth="16" tileheight="16" infinite="0" nextlayerid="4" nextobjectid="1">
 <tileset firstgid="1" source="lpc-tavern/lpc-tavern/preview/walls.tsx"/>
 <tileset firstgid="6145" source="lpc-tavern/lpc-tavern/preview/floors.tsx"/>
 <tileset firstgid="8193" source="tavern-furniture.tsx"/>
 <layer id="2" name="base" width="21" height="11">
  <data encoding="csv">
0,0,0,0,0,0,0,0,0,0,0,0,0,0,0,0,0,0,0,0,0,
0,0,4784,4848,4848,4848,4848,4848,0,0,0,4848,4848,4848,0,0,0,4848,4912,4848,0,
4782,4783,4784,4912,4912,4912,4912,4912,4912,4912,4912,4912,4912,4912,4912,7348,7348,4912,4912,4912,0,
4782,4783,7348,7348,7348,7348,7348,7348,7348,7348,7348,7348,7348,7348,7348,7348,7348,7348,7348,4911,0,
4782,7348,7348,7348,7348,7348,7348,7348,7348,7348,7348,7348,7348,7348,7348,7348,7348,7348,7348,4911,0,
4781,4782,7348,7348,7348,7348,7348,7348,7348,7348,7348,7348,7348,7348,7348,7348,0,7348,7348,7348,0,
4781,7348,7348,7348,7348,7348,7348,7348,7348,7348,7348,7348,7348,7348,7348,0,0,0,7348,7348,0,
4781,4782,7348,7348,7348,7348,7348,7348,7348,7348,7348,7348,7348,7348,7348,7348,0,7348,7348,4912,0,
7348,7348,7348,7348,7348,7348,7348,7348,7348,7348,7348,7348,7348,7348,7348,7348,0,7348,7348,0,0,
4844,4844,7348,7348,7348,7348,7348,7348,7348,7348,7348,7348,7348,7348,7348,7348,7348,7348,7348,7348,0,
4845,4845,4781,4781,7348,4781,4781,4781,4781,4781,7348,4781,4845,4845,4845,4845,4844,4844,4844,4910,0
</data>
 </layer>
 <layer id="3" name="Tile Layer 3" width="21" height="11">
  <data encoding="csv">
0,0,0,0,0,0,0,0,0,0,0,0,0,0,0,0,0,0,0,0,0,
0,0,0,0,0,0,0,0,0,0,0,0,0,0,0,0,0,0,0,0,0,
0,0,0,0,0,0,0,0,0,0,0,0,0,0,0,0,0,0,0,0,0,
0,0,0,0,0,0,0,0,0,0,0,0,0,0,0,0,0,0,0,0,0,
0,0,0,0,0,0,0,0,0,0,0,0,0,0,0,0,0,0,0,0,0,
0,0,0,0,0,0,0,0,0,0,0,0,0,0,0,0,0,0,0,0,0,
0,0,0,0,0,0,0,0,0,0,0,0,0,0,0,0,0,0,0,0,0,
0,0,0,0,0,0,0,0,0,0,0,0,0,0,0,0,0,0,0,0,0,
0,0,0,0,0,0,0,0,0,0,0,0,0,0,0,0,0,0,0,0,0,
0,0,0,0,0,0,0,0,0,0,0,0,0,0,0,0,0,0,0,0,0,
0,0,0,0,0,0,0,0,0,0,0,0,0,0,0,0,0,0,0,0,0
</data>
 </layer>
 <layer id="1" name="walls" width="21" height="11">
  <data encoding="csv">
0,0,0,0,0,0,0,0,0,0,0,0,0,0,0,0,0,0,0,0,0,
395,0,586,586,586,586,586,586,586,586,586,586,586,586,586,586,586,586,0,394,0,
523,0,0,0,0,0,0,0,0,0,0,0,0,0,0,0,0,0,0,521,0,
523,0,0,0,0,0,0,0,0,0,0,0,0,0,0,0,0,0,0,0,0,
523,0,0,0,0,0,0,0,0,0,0,0,0,0,0,0,0,0,0,521,0,
523,0,0,0,0,0,0,0,0,0,0,0,0,0,0,0,0,0,0,521,0,
523,0,0,0,0,0,0,0,0,0,0,0,0,0,0,0,0,0,0,521,0,
523,0,0,0,0,0,0,0,0,0,0,0,0,0,0,0,0,0,0,521,0,
523,0,0,0,0,0,0,0,0,0,0,0,0,0,0,0,0,0,0,521,0,
523,0,0,0,0,0,0,0,0,0,0,0,0,0,0,0,0,0,0,521,0,
331,0,458,458,458,458,458,458,458,0,0,458,458,458,458,458,458,458,0,330,0
</data>
 </layer>
</map>
